src/4-icons/procedures.svg

<svg width="260" height="260" viewBox="0 0 260 260" fill="none" xmlns="http://www.w3.org/2000/svg">
<path d="M63 126C59.134 126 56 129.134 56 133C56 136.866 59.134 140 63 140H149C152.866 140 156 136.866 156 133C156 129.134 152.866 126 149 126H63Z" fill="black"/>
<path d="M56 166C56 162.134 59.134 159 63 159H149C152.866 159 156 162.134 156 166C156 169.866 152.866 173 149 173H63C59.134 173 56 169.866 56 166Z" fill="black"/>
<path d="M63 191C59.134 191 56 194.134 56 198C56 201.866 59.134 205 63 205H149C152.866 205 156 201.866 156 198C156 194.134 152.866 191 149 191H63Z" fill="black"/>
<path fill-rule="evenodd" clip-rule="evenodd" d="M66 40V3C66 1.34314 67.3431 0 69 0H237C238.657 0 240 1.34314 240 3V217C240 218.657 238.657 220 237 220H190V257C190 258.657 188.657 260 187 260H19C17.3431 260 16 258.657 16 257V82.9524L57 40H66ZM80 40H187C188.657 40 190 41.3431 190 43V206H226V14H80V40ZM30 246V104H73C76.866 104 80 100.866 80 97V54H176V246H30ZM66 90H31.875L66 54V90Z" fill="black"/>
</svg>

<svg width="260" height="260" viewBox="0 0 260 260" fill="none" xmlns="http://www.w3.org/2000/svg"><path d="M63 126a7 7 0 1 0 0 14h86a7 7 0 1 0 0-14H63Zm-7 40a7 7 0 0 1 7-7h86a7 7 0 1 1 0 14H63a7 7 0 0 1-7-7Zm7 25a7 7 0 1 0 0 14h86a7 7 0 1 0 0-14H63Z" fill="#000"/><path fill-rule="evenodd" clip-rule="evenodd" d="M66 40V3a3 3 0 0 1 3-3h168a3 3 0 0 1 3 3v214a3 3 0 0 1-3 3h-47v37a3 3 0 0 1-3 3H19a3 3 0 0 1-3-3V82.952L57 40h9Zm14 0h107a3 3 0 0 1 3 3v163h36V14H80v26ZM30 246V104h43a7 7 0 0 0 7-7V54h96v192H30ZM66 90H31.875L66 54v36Z" fill="#000"/></svg>
